assets/icons/action/new_person_account.svg

<?xml version="1.0"?><svg xmlns="http://www.w3.org/2000/svg" width="52" height="52" viewBox="0 0 52 52"><path fill="#fff" d="m41.7 33.2c-2.9-1.2-3.4-2.3-3.4-3.5 0-1.2 0.8-2.3 1.8-3.2 1.7-1.5 2.6-3.7 2.6-6.2 0-4.6-3-8.7-8.2-8.7s-8.2 4-8.2 8.7c0 2.6 1 4.6 2.6 6.2 1 0.9 1.8 2 1.8 3.2 0 1.2-0.5 2.3-3.4 3.5-4.3 1.8-8.3 4-8.4 7.8 0 2.5 1.9 5 4.3 5h22.4c2.5 0 4.3-2.5 4.3-5 0.2-3.7-3.9-6-8.2-7.8z m-19.2 3.7"></path><path fill="#fff" d="m23.4 27.1c-0.3-0.4-1.9-2.4-1.8-7.8 0.1-5.3 2.4-6.6 2.4-6.6v-5.2c0-0.9-0.9-1.5-1.5-1.5h-19s-1.5 0.7-1.5 1.6v34.9h10.8c0.3-8.9 10.5-12.5 10.5-12.5 1.5-0.8 0.4-2.5 0.1-2.9z m-12.8 11c0 0.9-0.7 1.6-1.6 1.6h-1.6c-0.9 0-1.6-0.7-1.6-1.6v-1.6c0-0.9 0.7-1.6 1.6-1.6h1.6c0.9 0 1.6 0.7 1.6 1.6v1.6z m0-7.9c0 0.9-0.7 1.6-1.6 1.6h-1.6c-0.9 0-1.6-0.7-1.6-1.6v-1.6c0-0.9 0.7-1.6 1.6-1.6h1.6c0.9 0 1.6 0.7 1.6 1.6v1.6z m0-8c0 0.9-0.7 1.6-1.6 1.6h-1.6c-0.9 0-1.6-0.7-1.6-1.6v-1.6c0-0.9 0.7-1.6 1.6-1.6h1.6c0.9 0 1.6 0.7 1.6 1.6v1.6z m0-7.9c0 0.9-0.7 1.6-1.6 1.6h-1.6c-0.9 0-1.6-0.7-1.6-1.6v-1.6c0-0.9 0.7-1.6 1.6-1.6h1.6c0.9 0 1.6 0.7 1.6 1.6v1.6z m9 15.9c0 0.9-0.7 1.6-1.6 1.6h-1.6c-0.9 0-1.6-0.7-1.6-1.6v-1.6c0-0.9 0.7-1.6 1.6-1.6h1.6c0.9 0 1.6 0.7 1.6 1.6v1.6z m0-8c0 0.9-0.7 1.6-1.6 1.6h-1.6c-0.9 0-1.6-0.7-1.6-1.6v-1.6c0-0.9 0.7-1.6 1.6-1.6h1.6c0.9 0 1.6 0.7 1.6 1.6v1.6z m0-7.9c0 0.9-0.7 1.6-1.6 1.6h-1.6c-0.9 0-1.6-0.7-1.6-1.6v-1.6c0-0.9 0.7-1.6 1.6-1.6h1.6c0.9 0 1.6 0.7 1.6 1.6v1.6z"></path></svg>

<svg xmlns="http://www.w3.org/2000/svg" x="0px" y="0px"
	 width="52px" height="52px" viewBox="0 0 52 52" enable-background="new 0 0 52 52" xml:space="preserve">
<path fill="#FFFFFF" d="M41.7,33.2c-2.9-1.2-3.4-2.3-3.4-3.5c0-1.2,0.8-2.3,1.8-3.2c1.7-1.5,2.6-3.7,2.6-6.2c0-4.6-3-8.7-8.2-8.7
	s-8.2,4-8.2,8.7c0,2.6,1,4.6,2.6,6.2c1,0.9,1.8,2,1.8,3.2c0,1.2-0.5,2.3-3.4,3.5c-4.3,1.8-8.3,4-8.4,7.8c0,2.5,1.9,5,4.3,5h11.2
	h11.2c2.5,0,4.3-2.5,4.3-5C50.1,37.3,46,35,41.7,33.2z"/>
<path fill="#FFFFFF" d="M22.5,36.9"/>
<path fill="#FFFFFF" d="M23.4,27.1c-0.3-0.4-1.9-2.4-1.8-7.8c0.1-5.3,2.4-6.6,2.4-6.6c0-3.1,0-5,0-5.2C24,6.6,23.1,6,22.5,6
	C21.8,6,4.2,6,3.5,6S2,6.7,2,7.6v34.9h10.8C13.1,33.6,23.3,30,23.3,30C24.8,29.2,23.7,27.5,23.4,27.1z M10.6,38.1
	c0,0.9-0.7,1.6-1.6,1.6H7.4c-0.9,0-1.6-0.7-1.6-1.6v-1.6c0-0.9,0.7-1.6,1.6-1.6H9c0.9,0,1.6,0.7,1.6,1.6V38.1z M10.6,30.2
	c0,0.9-0.7,1.6-1.6,1.6H7.4c-0.9,0-1.6-0.7-1.6-1.6v-1.6c0-0.9,0.7-1.6,1.6-1.6H9c0.9,0,1.6,0.7,1.6,1.6V30.2z M10.6,22.2
	c0,0.9-0.7,1.6-1.6,1.6H7.4c-0.9,0-1.6-0.7-1.6-1.6v-1.6c0-0.9,0.7-1.6,1.6-1.6H9c0.9,0,1.6,0.7,1.6,1.6V22.2z M10.6,14.3
	c0,0.9-0.7,1.6-1.6,1.6H7.4c-0.9,0-1.6-0.7-1.6-1.6v-1.6c0-0.9,0.7-1.6,1.6-1.6H9c0.9,0,1.6,0.7,1.6,1.6V14.3z M19.6,30.2
	c0,0.9-0.7,1.6-1.6,1.6h-1.6c-0.9,0-1.6-0.7-1.6-1.6v-1.6c0-0.9,0.7-1.6,1.6-1.6H18c0.9,0,1.6,0.7,1.6,1.6V30.2z M19.6,22.2
	c0,0.9-0.7,1.6-1.6,1.6h-1.6c-0.9,0-1.6-0.7-1.6-1.6v-1.6c0-0.9,0.7-1.6,1.6-1.6H18c0.9,0,1.6,0.7,1.6,1.6V22.2z M19.6,14.3
	c0,0.9-0.7,1.6-1.6,1.6h-1.6c-0.9,0-1.6-0.7-1.6-1.6v-1.6c0-0.9,0.7-1.6,1.6-1.6H18c0.9,0,1.6,0.7,1.6,1.6V14.3z"/>
</svg>
